Kurtis_Portfolio/src/assets/Abtassets/ae.svg

<?xml version="1.0" encoding="UTF-8"?>
<svg id="Layer_1" data-name="Layer 1" xmlns="http://www.w3.org/2000/svg" viewBox="0 0 521.65 508.61">
  <defs>
    <style>
      .cls-1 {
        fill: #99f;
      }

      .cls-2 {
        fill: #00005b;
      }
    </style>
  </defs>
  <g id="Layer_2" data-name="Layer 2">
    <g id="Surfaces">
      <g id="Video_Audio_Surface" data-name="Video Audio Surface">
        <g id="Outline_no_shadow" data-name="Outline no shadow">
          <rect class="cls-2" width="521.65" height="508.61" rx="92.37" ry="92.37"/>
        </g>
      </g>
    </g>
    <g id="Outlined_Mnemonics_Logos" data-name="Outlined Mnemonics Logos">
      <g id="Ae">
        <path class="cls-1" d="M209.56,304.29h-80.84l-16.45,51.19c-.46,1.92-2.22,3.24-4.2,3.15h-40.94c-2.33,0-3.15-1.28-2.45-3.85l69.99-200.73c.7-2.1,1.4-4.15,2.1-6.84.92-4.67,1.39-9.41,1.4-14.17-.17-1.18.65-2.28,1.84-2.45.2-.03.41-.03.61,0h55.64c1.63,0,2.56.58,2.8,1.75l79.44,222.79c.7,2.33,0,3.5-2.1,3.5h-45.49c-1.62.18-3.11-.87-3.5-2.45l-17.85-51.89ZM141.32,261.13h55.29c-1.4-4.66-3.03-9.91-4.9-15.75-1.87-5.83-3.85-12.07-5.95-18.72-2.1-6.65-4.2-13.3-6.3-19.95-2.1-6.65-4.02-13.06-5.77-19.25-1.75-6.18-3.32-11.84-4.72-16.97h-.35c-1.97,9.45-4.42,18.8-7.35,27.99-3.27,10.5-6.59,21.23-9.97,32.19-3.38,10.97-6.71,21.12-9.97,30.44Z"/>
        <path class="cls-1" d="M407.28,284.37h-68.94c.84,6.82,3.11,13.39,6.65,19.28,3.91,5.83,9.45,10.4,15.92,13.12,8.77,3.8,18.26,5.66,27.82,5.45,7.58-.15,15.14-.97,22.57-2.48,6.65-.9,13.16-2.6,19.41-5.06,1.16-.93,1.75-.35,1.75,1.75v33.24c.06.91-.12,1.81-.53,2.62-.4.64-.94,1.17-1.57,1.57-6.92,3.07-14.21,5.24-21.68,6.46-10.15,1.91-20.47,2.79-30.79,2.62-16.57,0-30.45-2.57-41.64-7.7-10.58-4.66-19.93-11.73-27.29-20.65-6.88-8.4-12-18.1-15.05-28.52-3.02-10.29-4.55-20.95-4.55-31.67-.03-11.7,1.8-23.34,5.42-34.47,3.49-10.86,9.01-20.95,16.27-29.74,7.16-8.69,16.11-15.74,26.25-20.65,10.26-5.01,22.4-6.81,36.39-6.81,11.61-.29,23.14,1.98,33.77,6.65,8.94,3.81,16.81,9.76,22.92,17.31,5.73,7.4,10.12,15.75,12.95,24.67,2.76,8.6,4.17,17.57,4.2,26.6,0,5.13-.18,9.8-.53,14-.35,4.2-.64,7.23-.87,9.1-.19,1.6-1.54,2.8-3.15,2.8-1.4,0-3.79.17-7.17.52-3.38.35-7.58.58-12.6.7-5.02.12-10.32-.73-15.92-.73ZM338.34,252.49h45.84c5.6,0,9.74-.06,12.42-.18,1.8-.18,3.53-.75,5.08-1.68v-2.1c-.07-2.74-.54-5.45-1.4-8.05-3.88-12.27-15.48-20.44-28.35-19.95-12.03-.73-23.36,5.72-28.87,16.45-2.4,4.88-3.99,10.12-4.72,15.5Z"/>
      </g>
    </g>
  </g>
</svg>

<svg width="522" height="509" viewBox="0 0 522 509" fill="none" xmlns="http://www.w3.org/2000/svg">
<g clip-path="url(#clip0_116_85)">
<path d="M429.28 0H92.37C41.3555 0 0 41.3555 0 92.37V416.24C0 467.255 41.3555 508.61 92.37 508.61H429.28C480.295 508.61 521.65 467.255 521.65 416.24V92.37C521.65 41.3555 480.295 0 429.28 0Z" fill="black"/>
<path d="M209.56 304.29H128.72L112.27 355.48C111.81 357.4 110.05 358.72 108.07 358.63H67.1299C64.7999 358.63 63.9799 357.35 64.6799 354.78L134.67 154.05C135.37 151.95 136.07 149.9 136.77 147.21C137.69 142.54 138.16 137.8 138.17 133.04C138 131.86 138.82 130.76 140.01 130.59C140.21 130.56 140.42 130.56 140.62 130.59H196.26C197.89 130.59 198.82 131.17 199.06 132.34L278.5 355.13C279.2 357.46 278.5 358.63 276.4 358.63H230.91C229.29 358.81 227.8 357.76 227.41 356.18L209.56 304.29ZM141.32 261.13H196.61C195.21 256.47 193.58 251.22 191.71 245.38C189.84 239.55 187.86 233.31 185.76 226.66C183.66 220.01 181.56 213.36 179.46 206.71C177.36 200.06 175.44 193.65 173.69 187.46C171.94 181.28 170.37 175.62 168.97 170.49H168.62C166.65 179.94 164.2 189.29 161.27 198.48C158 208.98 154.68 219.71 151.3 230.67C147.92 241.64 144.59 251.79 141.33 261.11L141.32 261.13Z" fill="white"/>
<path d="M407.28 284.37H338.34C339.18 291.19 341.45 297.76 344.99 303.65C348.9 309.48 354.44 314.05 360.91 316.77C369.68 320.57 379.17 322.43 388.73 322.22C396.31 322.07 403.87 321.25 411.3 319.74C417.95 318.84 424.46 317.14 430.71 314.68C431.87 313.75 432.46 314.33 432.46 316.43V349.67C432.52 350.58 432.34 351.48 431.93 352.29C431.53 352.93 430.99 353.46 430.36 353.86C423.44 356.93 416.15 359.1 408.68 360.32C398.53 362.23 388.21 363.11 377.89 362.94C361.32 362.94 347.44 360.37 336.25 355.24C325.67 350.58 316.32 343.51 308.96 334.59C302.08 326.19 296.96 316.49 293.91 306.07C290.89 295.78 289.36 285.12 289.36 274.4C289.33 262.7 291.16 251.06 294.78 239.93C298.27 229.07 303.79 218.98 311.05 210.19C318.21 201.5 327.16 194.45 337.3 189.54C347.56 184.53 359.7 182.73 373.69 182.73C385.3 182.44 396.83 184.71 407.46 189.38C416.4 193.19 424.27 199.14 430.38 206.69C436.11 214.09 440.5 222.44 443.33 231.36C446.09 239.96 447.5 248.93 447.53 257.96C447.53 263.09 447.35 267.76 447 271.96C446.65 276.16 446.36 279.19 446.13 281.06C445.94 282.66 444.59 283.86 442.98 283.86C441.58 283.86 439.19 284.03 435.81 284.38C432.43 284.73 428.23 284.96 423.21 285.08C418.19 285.2 412.89 284.35 407.29 284.35L407.28 284.37ZM338.34 252.49H384.18C389.78 252.49 393.92 252.43 396.6 252.31C398.4 252.13 400.13 251.56 401.68 250.63V248.53C401.61 245.79 401.14 243.08 400.28 240.48C396.4 228.21 384.8 220.04 371.93 220.53C359.9 219.8 348.57 226.25 343.06 236.98C340.66 241.86 339.07 247.1 338.34 252.48V252.49Z" fill="white"/>
</g>
<defs>
<clipPath id="clip0_116_85">
<rect width="521.65" height="508.61" fill="white"/>
</clipPath>
</defs>
</svg>
